X: 07116
T: TONY LEE
C: Bob McQuillen 7 June 89
B: Bob's Note Book 7 #116
%R: reel
Z: 2019 John Chambers <jc:trillian.mit.edu>
M: C
L: 1/8
K: G
dc \
| BGAB GDED | GBde d2Bd | edge dBeg | dBGB A2BA |\
| GBAB GDED | GBde dBdg | edBG AGEG | D2G2 G2 :|
|: Bc \
| dBdg eceg | degd e2dc | Bdeg feBA | GBAG E2GE |\
| D2DG EDGE | DEGD EGBd | edge dBGA | B2G2 G2 :|
%%begintext align
%% I've known Tony from 'way
%% back, when he was a small boy (his dad was my
%% doctor for years), and now he's a big strapping young
%% man who likes to come to our dances. It's always
%% nice to see you there, Tony!
%%endtext

% %sep 1 1 500
% %text There was no tune 117; its page was blank in my copy of the book.

%%sep 1 1 500

%%sep 1 1 500

